resources/svg/litecoin.svg

<svg xmlns="http://www.w3.org/2000/svg" viewBox="0 0 15 15" fill="currentColor"><path fill-rule="evenodd" clip-rule="evenodd" d="M3.71354 6.58419L5.0149 1.37872L5.98504 1.62126L4.89157 5.99518L6.77637 5.05278L7.22358 5.9472L4.57213 7.27293L3.14036 13H13V14H1.85959L3.3941 7.86195L1.22358 8.9472L0.776367 8.05278L3.71354 6.58419Z" fill="black"/></svg>

<svg xmlns="http://www.w3.org/2000/svg" viewBox="0 0 15 15" fill="currentColor"><path fill-rule="evenodd" clip-rule="evenodd" d="M3.714 6.584l1.3-5.205.971.242-1.093 4.374 1.884-.942.448.894-2.652 1.326L3.14 13H13v1H1.86l1.534-6.138-2.17 1.085-.448-.894 2.938-1.469z" fill="currentColor"/></svg>
